public/assets/icons/search.svg

<svg width="24" height="24" viewBox="0 0 24 24" fill="none" xmlns="http://www.w3.org/2000/svg">
<path fill-rule="evenodd" clip-rule="evenodd" d="M11.5 2.75C6.66751 2.75 2.75 6.66751 2.75 11.5C2.75 16.3325 6.66751 20.25 11.5 20.25C16.3325 20.25 20.25 16.3325 20.25 11.5C20.25 6.66751 16.3325 2.75 11.5 2.75ZM1.25 11.5C1.25 5.83908 5.83908 1.25 11.5 1.25C17.1609 1.25 21.75 5.83908 21.75 11.5C21.75 14.0605 20.8111 16.4017 19.2589 18.1982L22.5303 21.4697C22.8232 21.7626 22.8232 22.2374 22.5303 22.5303C22.2374 22.8232 21.7626 22.8232 21.4697 22.5303L18.1982 19.2589C16.4017 20.8111 14.0605 21.75 11.5 21.75C5.83908 21.75 1.25 17.1609 1.25 11.5Z" fill="#5C5C7B"/>
</svg>

<?xml version="1.0"?>
<svg width="24" height="24" xmlns="http://www.w3.org/2000/svg" xmlns:svg="http://www.w3.org/2000/svg">
 <g class="layer">
  <title>Layer 1</title>
  <path clip-rule="evenodd" d="m11.5,2.75c-4.83,0 -8.75,3.92 -8.75,8.75c0,4.83 3.92,8.75 8.75,8.75c4.83,0 8.75,-3.92 8.75,-8.75c0,-4.83 -3.92,-8.75 -8.75,-8.75zm-10.25,8.75c0,-5.66 4.59,-10.25 10.25,-10.25c5.66,0 10.25,4.59 10.25,10.25c0,2.56 -0.94,4.9 -2.49,6.7l3.27,3.27c0.29,0.29 0.29,0.77 0,1.06c-0.29,0.29 -0.77,0.29 -1.06,0l-3.27,-3.27c-1.8,1.55 -4.14,2.49 -6.7,2.49c-5.66,0 -10.25,-4.59 -10.25,-10.25z" fill="#ff0000" fill-rule="evenodd" id="svg_1"/>
 </g>
</svg>
